X:1
T:Three Girls Drowned
M:3/4
L:1/8
K:C
C-D| EED-E G2| C C/2C/2 C2C-D| EED-E G2| A^F G2 E2| EG c2 d2| cB A2 C2|\
 CA G2 E2| CC C2C-D| EED-E G2| CC/2-C/2 C2C-D| EED-E G2| A^F G2 E2|\
 EG c2 d2|c-B A2 C2|

